**kern	**silbe	**kern	**silbe
*ICvox	*	*ICvox	*
*B-:	*	*B-:	*
*M4/4	*	*M4/4	*
*clefF4	*	*clefGv2	*
r;	.	r;	.
r;	.	r;	.
=1	=1	=1	=1
1r	.	1r	.
=2	=2	=2	=2
1r	.	1r	.
=3	=3	=3	=3
1r	.	1r	.
=4	=4	=4	=4
1r	.	1r	.
=5	=5	=5	=5
1r	.	1r	.
=6	=6	=6	=6
1r	.	1r	.
=7	=7	=7	=7
1r	.	1r	.
=8	=8	=8	=8
1r	.	1r	.
=9	=9	=9	=9
1r	.	1r	.
=10	=10	=10	=10
1r	.	1r	.
=11	=11	=11	=11
1r	.	1r	.
=12	=12	=12	=12
1r	.	1r	.
=13	=13	=13	=13
1r	.	1r	.
=14	=14	=14	=14
1r	.	1r	.
=15	=15	=15	=15
1r	.	1r	.
=16	=16	=16	=16
2r	.	1r	.
4r	.	.	.
8BB-	As	.	.
8BB-	the	.	.
=17	=17	=17	=17
4D	sun	1r	.
4D	goes	.	.
8C	down	.	.
8BB-	_	.	.
8BB-	on	.	.
8BB-	the	.	.
=18	=18	=18	=18
8D	A-	1r	.
8D	-ri-	.	.
8C	-zo-	.	.
8D	-na	.	.
8C	plain,	.	.
8BB-	_	.	.
8BB-	and	.	.
8BB-	the	.	.
=19	=19	=19	=19
4D-	wind	1r	.
8C	whist-	.	.
8D-	-;es	.	.
8C	by	.	.
8BB-	_	.	.
8BB-	like	.	.
8BB-	a	.	.
=20	=20	=20	=20
8D-	run-	1r	.
8D-	-a-	.	.
8BB-	-way	.	.
8[D-	train,	.	.
8D-]	_	.	.
8BB-	hey	.	.
8D-~	hey	.	.
8D	hey...	.	.
=21	=21	=21	=21
1r	.	1r	.
=22	=22	=22	=22
4r	.	1r	.
8BB-	...it's	.	.
8BB-	a	.	.
8D	beau-	.	.
8C~	-ti-	.	.
8BB-	-ful	.	.
8BB-	thing	.	.
=23	=23	=23	=23
8GG	_	1r	.
8r	.	.	.
4r	.	.	.
2r	.	.	.
=24	=24	=24	=24
2r	.	1r	.
8r	.	.	.
8[BB-	Well,	.	.
8BB-]	_	.	.
8BB-	it's	.	.
=25	=25	=25	=25
8D	me	1r	.
8[D	and	.	.
8D]	_	.	.
8[D	you	.	.
4D]	_	.	.
8BB-	and	.	.
8BB-	a	.	.
=26	=26	=26	=26
4D-	flat-	1r	.
4D-	-bed	.	.
8C	truck,	.	.
8BB-	_	.	.
8BB-	and	.	.
8BB-	my	.	.
=27	=27	=27	=27
4D-	heart	1r	.
8D-	ki-	.	.
8D-	-cking	.	.
8C	o-	.	.
8BB-	-ver	.	.
8BB-	like	.	.
8BB-	a	.	.
=28	=28	=28	=28
4F	white-	1r	.
4E-	-tailed	.	.
8D-	buck,	.	.
8BB-~	huh	.	.
8D-	huh	.	.
8D	huh...	.	.
=29	=29	=29	=29
1r	.	1r	.
=30	=30	=30	=30
8r	.	1r	.
8AA-	...n'	.	.
8BB-	in	.	.
8BB-	the	.	.
8D	mid-	.	.
8C	-dle	.	.
8BB-	of	.	.
8BB-	spring	.	.
=31	=31	=31	=31
8GG	_	1r	.
8r	.	.	.
4r	.	.	.
2r	.	.	.
=32	=32	=32	=32
2r	.	1r	.
4r	.	.	.
8G	You	.	.
8B-	can	.	.
=33	=33	=33	=33
8c	cut	1r	.
8[c	me	.	.
8c]	_	.	.
8[c	deep,	.	.
4c]	_	.	.
8c	you	.	.
8B-	can	.	.
=34	=34	=34	=34
8c	cut	1r	.
8[c	me	.	.
8c]	_	.	.
8[c	down,	.	.
4c]	_	.	.
8c	you	.	.
8B-	can	.	.
=35	=35	=35	=35
8c	cut	1r	.
8[d	me	.	.
8d]	_	.	.
8[B-	loose	.	.
4B-]	_	.	.
4r	.	.	.
=36	=36	=36	=36
4r	.	1r	.
8G	Don't	.	.
8F	you	.	.
8F~	know	.	.
8F~	it's	.	.
8C~	o-	.	.
8F~	-kay?	.	.
=37	=37	=37	=37
8C~	_	1r	.
8D~	_	.	.
4r	.	.	.
2r	.	.	.
=38	=38	=38	=38
2r	.	1r	.
8r	.	.	.
8[F	Hey,	.	.
8F]	_	.	.
8F	hey!	.	.
=39	=39	=39	=39
8C	_	1r	.
8D	_	.	.
4r	.	.	.
2r	.	.	.
=40	=40	=40	=40
2r	.	1r	.
4r	.	.	.
8G	You	.	.
8B-	can	.	.
=41	=41	=41	=41
8c	kick	1r	.
8[c	and	.	.
8c]	_	.	.
8[c	scream,	.	.
4c]	_	.	.
8c	you	.	.
8B-	can	.	.
=42	=42	=42	=42
4c	slap	1r	.
4c	my	.	.
4c	face,	.	.
4r	.	.	.
=43	=43	=43	=43
4c	set	1r	.
4c	my	.	.
8c	whe-	.	.
8c	-els	.	.
8c	on	.	.
8B-	a	.	.
=44	=44	=44	=44
4c	high	1r	.
4c	speed	.	.
4c	chase,	.	.
4c	on	.	.
=45	=45	=45	=45
4c	you	1r	.
4B-	...	.	.
2r	.	.	.
=46	=46	=46	=46
8r	.	1r	.
8B-	no	.	.
8B-	mat-	.	.
8B-	-ter	.	.
4d	what	.	.
8d	you	.	.
8d	do!	.	.
=47	=47	=47	=47
8c	_	1r	.
8r	.	.	.
4r	.	.	.
2r	.	.	.
=48	=48	=48	=48
1r	.	1r	.
=49	=49	=49	=49
2r	.	1r	.
4r	.	.	.
4F	Wild	.	.
=50	=50	=50	=50
4A	hor-	1r	.
4B-	-ses	.	.
4c	could	.	.
16cQ	_	.	.
4d	not	.	.
=51	=51	=51	=51
16cQ	_	.	.
4.B-	_	1r	.
8[B-	me	.	.
4B-]	_	.	.
8B-	a-	.	.
8[B-	-way	.	.
=52	=52	=52	=52
16B-]	_	1r	.
16G	_	.	.
16F	_	.	.
16r	.	.	.
4r	.	.	.
4r	.	.	.
4BB-	from	.	.
=53	=53	=53	=53
16CQ	_	.	.
4D	you.	1r	.
4r	.	.	.
2r	.	.	.
=54	=54	=54	=54
1r	.	1r	.
=55	=55	=55	=55
1r	.	1r	.
=56	=56	=56	=56
1r	.	1r	.
=57	=57	=57	=57
2r	.	1r	.
4r	.	.	.
16e-Q	_	.	.
4f	Wild	.	.
=58	=58	=58	=58
4c	hor-	1r	.
4c	-ses	.	.
4c	could	.	.
16cQ	_	.	.
4d	not	.	.
=59	=59	=59	=59
16cQ	_	.	.
4.B-	_	1r	.
8[B-	me	.	.
4B-]	_	.	.
8B-	a-	.	.
8B-	-way	.	.
=60	=60	=60	=60
2r	.	1r	.
4r	.	.	.
16cQ	_	.	.
4d	from	.	.
=61	=61	=61	=61
4c	you!	1r	.
16c	_	.	.
8.B-	_	.	.
2r	.	.	.
=62	=62	=62	=62
1r	.	1r	.
=63	=63	=63	=63
1r	.	1r	.
=64	=64	=64	=64
2r	.	1r	.
8r	.	.	.
8BB-~	As	.	.
4AA-~	the	.	.
=65	=65	=65	=65
4D	sky	1r	.
4D	falls	.	.
4D	down	.	.
8BB-	from	.	.
8BB-	the	.	.
=66	=66	=66	=66
8D-	mid-	1r	.
8[D-	-night	.	.
8D-]	_	.	.
8[D-	blue,	.	.
4D-]	_	.	.
4r	.	.	.
=67	=67	=67	=67
8D-	spit-	1r	.
8D-	-tin'	.	.
4D-	like	.	.
8D-	bul-	.	.
8BB-	-lets	.	.
8D-	on	.	.
8BB-	a	.	.
=68	=68	=68	=68
*	*	*clefF4	*
4D-	hot	1r	.
4D-	tin	.	.
8D-	roof,	.	.
8BB-	a'	.	.
8D-	hey	.	.
8[D	hey	.	.
=69	=69	=69	=69
4D]	...	1r	.
2r	.	.	.
4r	.	.	.
=70	=70	=70	=70
4r	.	1r	.
8BB-	...it's	.	.
8BB-	a	.	.
8D	beau-	.	.
8C	-ti-	.	.
8BB-	-ful	.	.
8BB-	sound	.	.
=71	=71	=71	=71
2GG	_	1r	.
2r	.	.	.
=72	=72	=72	=72
2r	.	2r	.
8r	.	8r	.
8B-	A'	8F	A'
8B-	well,	8F	well,
8B-	it's	8F	it's
=73	=73	=73	=73
16cQ	_	.	.
8d	me	8A-	me
.	.	16GQ	_
8[d	and	8[A-	and
8d]	_	8A-]	_
8[B-	you,	8[F	you,
4B-]	_	4F]	_
8B-	and	8F	and
8B-	a	8F	a
=74	=74	=74	=74
.	.	16GQ	_
4d-	flat-	4A-	flat-
16d-Q	_	16GQ	_
4d	-bed	4A-	-bed
4B-	truck,	4F	truck,
8B-	in	8F	in
8B-	a	8F	a
=75	=75	=75	=75
.	.	16GQ	_
8d-	foot	8A-	foot
8d-	a'	8A-	a'
4c	red	4A-	red
4[B-	mud,	4[F	mud,
8B-]	_	8F]	_
16d-Q	_	16A-Q	_
8[e-	just	8[B-	just
=76	=76	=76	=76
8e-]	_	8B-]	_
8[d-	my	8[A-	my
8d-]	_	8A-]	_
8[B-	luck,	8[F	luck!
8B-]	_	8F]	_
8B-	a'	8r	.
8c	hey	4r	.
8d	hey!	.	.
=77	=77	=77	=77
8B-	_	1r	.
8G	_	.	.
4F	_	.	.
2r	.	.	.
=78	=78	=78	=78
8r	.	1r	.
8B-	A'	.	.
8d-	hun-	.	.
8B-	-dred	.	.
4d-	miles	.	.
8c	out-	.	.
8B-	-ta	.	.
=79	=79	=79	=79
6B-	town	1r	.
3G	_	.	.
2r	.	.	.
=80	=80	=80	=80
2r	.	1r	.
4r	.	.	.
8G	You	.	.
8B-	can	.	.
=81	=81	=81	=81
8c	call	1r	.
8c	me	.	.
8c	a	.	.
8[c	fool,	.	.
4c]	_	.	.
8c	you	.	.
8B-	can	.	.
=82	=82	=82	=82
8c	call	1r	.
8[c	me	.	.
8c]	_	.	.
8[c	blind,	.	.
4c]	_	.	.
8c	you	.	.
8B-	can	.	.
=83	=83	=83	=83
8c	call	1r	.
8[d	it	.	.
8d]	_	.	.
8[B-	quits,	.	.
4B-]	_	.	.
4r	.	.	.
=84	=84	=84	=84
8r	.	1r	.
8F	can't	.	.
8G	hear	.	.
8F	a	.	.
8A-	word	.	.
8G	that	.	.
8G	you	.	.
8F	say	.	.
=85	=85	=85	=85
8D-	_	1r	.
8D	_	.	.
4r	.	.	.
2r	.	.	.
=86	=86	=86	=86
2r	.	1r	.
8r	.	.	.
8E	A'	.	.
8F	hey	.	.
8F	_	.	.
=87	=87	=87	=87
2.B-	_	1r	.
4r	.	.	.
=88	=88	=88	=88
2r	.	1r	.
8r	.	.	.
8E-	'Cause	.	.
8F	if	.	.
8B-	I	.	.
=89	=89	=89	=89
8c	had	1r	.
8[c	you	.	.
8c]	_	.	.
8[c	once,	.	.
8c]	_	.	.
8B-	I'm	.	.
8c	gon-	.	.
8B-	-na	.	.
=90	=90	=90	=90
4c	have	1r	.
4c	you	.	.
4c	twice,	.	.
8r	.	.	.
8F	I	.	.
=91	=91	=91	=91
8c	fol-	1r	.
8c	-low	.	.
4c	my	.	.
8c	heart	.	.
8c	in-	.	.
8c	-stead	.	.
8B-	of	.	.
=92	=92	=92	=92
8r	.	1r	.
8B-	good	.	.
8B-	ad-	.	.
8[c	-vice,	.	.
8c]	_	.	.
8[c	hey,	.	.
8c]	_	.	.
8[c	you,	.	.
=93	=93	=93	=93
8c]	_	1r	.
8[B-	_	.	.
4B-]	_	.	.
2r	.	.	.
=94	=94	=94	=94
8r	.	1r	.
8f	no	.	.
8f	mat-	.	.
8f	-ter	.	.
8f	what	.	.
8[f	you	.	.
8f]	_	.	.
8[f	do!	.	.
=95	=95	=95	=95
6f]	_	1r	.
6d	_	.	.
6[c	_	.	.
2c]	_	.	.
=96	=96	=96	=96
1r	.	1r	.
=97	=97	=97	=97
2r	.	2r	.
4r	.	4r	.
4F	Wild	4f	Wild
=98	=98	=98	=98
4A	hor-	4f	hor-
4B-	-ses	4f	-ses
4c	could	4f	could
16cQ	_	.	.
4d	not	4g	not
=99	=99	=99	=99
16cQ	_	16dQ	_
4.B-	_	4.e-	_
8[B-	me	8[e-	me
4B-]	_	4e-]	_
8B-	a-	8e-	a-
8[B-	-way	8[e-	-way
=100	=100	=100	=100
16B-]	_	4e-]	_
16G	_	.	.
16F	_	.	.
16r	.	.	.
4r	.	4r	.
4r	.	2r	.
4BB-	from	.	.
=101	=101	=101	=101
4D	you.	1r	.
4r	.	.	.
2r	.	.	.
=102	=102	=102	=102
1r	.	1r	.
=103	=103	=103	=103
1r	.	1r	.
=104	=104	=104	=104
1r	.	1r	.
=105	=105	=105	=105
2r	.	2r	.
4r	.	4r	.
16e-Q	_	.	.
4f	Wild	4b-	Wild
=106	=106	=106	=106
4c	hor-	4f	hor-
4c	-ses	4f	-ses
4c	could	4f	could
16cQ	_	.	.
4d	not	4g	not
=107	=107	=107	=107
16cQ	_	16dQ	_
4.B-	_	4.e-	_
8[B-	me	8[e-	me
4B-]	_	4e-]	_
8B-	a-	8e-	a-
8B-	-way	8e-	-way
=108	=108	=108	=108
2r	.	1r	.
4r	.	.	.
4[d	from	.	.
=109	=109	=109	=109
12d]	_	1r	.
12c	you!	.	.
12B-	_	.	.
4r	.	.	.
2r	.	.	.
=110	=110	=110	=110
4r	.	1r	.
8r	.	.	.
16FQ	_	.	.
8[G	Ooh	.	.
4.G]	_	.	.
8[F	_	.	.
=111	=111	=111	=111
4.F]	_	1r	.
8D	_	.	.
8C	_	.	.
8BB-	_	.	.
4r	.	.	.
=112	=112	=112	=112
1r	.	1r	.
=113	=113	=113	=113
1r	.	1r	.
=114	=114	=114	=114
1r	.	1r	.
=115	=115	=115	=115
1r	.	1r	.
=116	=116	=116	=116
1r	.	1r	.
=117	=117	=117	=117
1r	.	1r	.
=118	=118	=118	=118
1r	.	1r	.
=119	=119	=119	=119
1r	.	1r	.
=120	=120	=120	=120
1r	.	1r	.
=121	=121	=121	=121
1r	.	1r	.
=122	=122	=122	=122
1r	.	1r	.
=123	=123	=123	=123
4D-	Sun	1r	.
4D-	goes	.	.
16D-Q	_	.	.
4D	down	.	.
8BB-	on	.	.
8BB-	the	.	.
=124	=124	=124	=124
8D-	A-	1r	.
8D-	-ri-	.	.
8C	-zo-	.	.
8D-	-na	.	.
16C	plain,	.	.
8.BB-	_	.	.
8BB-	and	.	.
8BB-	the	.	.
=125	=125	=125	=125
4D-	wind	1r	.
8D-	whis-	.	.
8BB-	-tles	.	.
4D-	by	.	.
8BB-	like	.	.
8BB-	a	.	.
=126	=126	=126	=126
8F	run-	1r	.
8F	-a-	.	.
8E-	-way	.	.
16D-	train,	.	.
16[BB-	_	.	.
8BB-]	_	.	.
8BB-	a'	.	.
8C	hey	.	.
8D	hey...	.	.
=127	=127	=127	=127
1r	.	1r	.
=128	=128	=128	=128
4r	.	1r	.
8BB-	...it's	.	.
8BB-	a	.	.
8D	beau-	.	.
8C	-ti-	.	.
8BB-	-ful	.	.
8BB-	thing	.	.
=129	=129	=129	=129
2GG	_	1r	.
2r	.	.	.
=130	=130	=130	=130
1r	.	1r	.
=131	=131	=131	=131
1r	.	1r	.
=132	=132	=132	=132
1r	.	1r	.
=133	=133	=133	=133
1r	.	1r	.
=134	=134	=134	=134
2r	.	2r	.
4r	.	4r	.
.	.	8e-q	_
4F	Wild	4f	Wild
=135	=135	=135	=135
4A	hor-	4f	hor-
4B-	-ses	4f	-ses
4c	could	4f	could
8cq	_	.	.
4d	not	4g	not
=136	=136	=136	=136
16cQ	_	16dQ	_
4.B-	_	4.e-	_
8[B-	me	8[e-	me
4B-]	_	4e-]	_
8B-	a-	8e-	a-
8[B-	-way	8[e-	-way
=137	=137	=137	=137
16B-]	_	4e-]	_
16G	_	.	.
16F	_	.	.
16r	.	.	.
4r	.	4r	.
4r	.	2r	.
4BB-	from	.	.
=138	=138	=138	=138
8Cq	_	.	.
4D	you.	1r	.
4r	.	.	.
2r	.	.	.
=139	=139	=139	=139
1r	.	1r	.
=140	=140	=140	=140
1r	.	1r	.
=141	=141	=141	=141
1r	.	1r	.
=142	=142	=142	=142
*	*	*clefG2	*
2r	.	2r	.
4r	.	4r	.
8e-q	_	.	.
4f	Wild	4b-	Wild
=143	=143	=143	=143
4c	hor-	4f	hor-
4c	-ses	4f	-ses
4c	could	4f	could
8cq	_	.	.
4d	not	4g	not
=144	=144	=144	=144
16cQ	_	16fQ	_
4.B-	_	4.e-	_
8[B-	me	8[e-	me
4B-]	_	4e-]	_
8B-	a-	8e-	a-
8B-	-way	8e-	-way
=145	=145	=145	=145
2r	.	1r	.
8cq	_	.	.
2d	from	.	.
=146	=146	=146	=146
2B-	you!	1r	.
2r	.	.	.
=147	=147	=147	=147
2r	.	1r	.
8r	.	.	.
8F	Ooh	.	.
4[G	_	.	.
=148	=148	=148	=148
8G]	_	1r	.
8[F	_	.	.
4F]	_	.	.
2r	.	.	.
=149	=149	=149	=149
1r	.	1r	.
=150	=150	=150	=150
2r	.	1r	.
4r	.	.	.
8e-q	_	.	.
4f	Wild	.	.
=151	=151	=151	=151
4f	hor-	1r	.
4f	-ses	.	.
4f	could	.	.
8fq	_	.	.
4g	not	.	.
=152	=152	=152	=152
8dq	_	.	.
4.c	drag	1r	.
8[c	me	.	.
4c]	_	.	.
8c	a-	.	.
8c	-way	.	.
=153	=153	=153	=153
8B-	_	1r	.
8r	.	.	.
4r	.	.	.
8r	.	.	.
8[d	from	.	.
4d_	_	.	.
=154	=154	=154	=154
4d]	_	2r	.
8c	you!	.	.
8[B-	_	.	.
2B-_	_	4r	.
.	.	8r	.
.	.	8[f	Ooh
=155	=155	=155	=155
1B-]	_	1f]	_
=156	=156	=156	=156
1[F	_	1[b-	_
=157	=157	=157	=157
1F]	_	2.b-]	_
.	.	4a-	...
=158	=158	=158	=158
1r	.	1r	.
=159	=159	=159	=159
1r	.	1r	.
=160	=160	=160	=160
1r	.	1r	.
=161	=161	=161	=161
1r	.	1r	.
=162	=162	=162	=162
1r	.	1r	.
=163	=163	=163	=163
1r	.	1r	.
=164	=164	=164	=164
1r	.	1r	.
=165	=165	=165	=165
1r	.	1r	.
=166	=166	=166	=166
2r	.	2r	.
8r	.	8r	.
8e-q	_	8aq	_
4.f	Wild	4.b-	Wild
=167	=167	=167	=167
4c	hor-	4f 4g	hor-
4c	-ses	2.f	-ses...
4F	could-	.	.
4F	-n't	.	.
=168	=168	=168	=168
4.G	drag	1r	.
8[B-	me	.	.
4B-]	_	.	.
8c	a-	.	.
8d-	-way	.	.
=169	=169	=169	=169
8c	_	1r	.
8[B-	_	.	.
4B-_	_	.	.
4B-]	_	.	.
4F	from	.	.
=170	=170	=170	=170
4G	you!	1r	.
4r	.	.	.
2r	.	.	.
=171	=171	=171	=171
1r	.	1r	.
=172	=172	=172	=172
1r	.	1r	.
=173	=173	=173	=173
1r	.	1r	.
=174	=174	=174	=174
1r	.	1r	.
=175	=175	=175	=175
2r	.	1r	.
4d	Could	.	.
4d	not	.	.
=176	=176	=176	=176
16cQ	_	.	.
4.B-	_	1r	.
8[B-	me	.	.
4B-]	_	.	.
8B-	a-	.	.
8B-	-way	.	.
=177	=177	=177	=177
2r	.	1r	.
8r	.	.	.
4.B-	from	.	.
=178	=178	=178	=178
8B-	you!	1r	.
8[f	_	.	.
2.f]	_	.	.
=179	=179	=179	=179
1r	.	1r	.
=180	=180	=180	=180
1r	.	1r	.
=181	=181	=181	=181
1r	.	1r	.
=182	=182	=182	=182
1r	.	1r	.
=183	=183	=183	=183
1r	.	1r	.
*-	*-	*-	*-
!!!ENC: Nathaniel Condit-Schultz